assets/images/script/r-5-e1.svg

<svg fill="none" height="155" viewBox="0 0 265 155" width="265" xmlns="http://www.w3.org/2000/svg"><path d="m60.478 132.652c-2.5803-2.257.8393 2.042 1.1273 2.33 10.122 10.122 23.9099 15.609 38.1043 16.535 23.7124 1.546 72.7554-23.014 71.5494-52.9731-1.266-31.4248-49.244-28.6764-69.67-26.38-32.2345 3.624-64.4333 11.5046-95.97527 19.0146-13.37172 3.1838 26.08067-8.7028 39.23167-12.7014 55.3786-16.8381 111.5936-29.4664 167.4486-44.4175 14.197-3.8003 36.776-6.886 48.025-17.5866 8.602-8.18271-12.999-10.94268-16.685-11.49896-13.287-2.0057-30.932-4.618316-43.365 2.17953-14.75 8.06493 5.641 15.24933 11.724 18.03753" stroke="#000" stroke-linecap="round" stroke-width="5"/></svg>

<svg width="265" height="155" viewBox="0 0 265 155" fill="none" xmlns="http://www.w3.org/2000/svg">
<path d="M60.478 132.652C57.8977 130.395 61.3173 134.694 61.6053 134.982C71.7273 145.104 85.5152 150.591 99.7096 151.517C123.422 153.063 172.465 128.503 171.259 98.5439C169.993 67.1191 122.015 69.8675 101.589 72.1639C69.3545 75.7879 37.1557 83.6685 5.61373 91.1785C-7.75799 94.3623 31.6944 82.4757 44.8454 78.4771C100.224 61.639 156.439 49.0107 212.294 34.0596C226.491 30.2593 249.07 27.1736 260.319 16.473C268.921 8.29029 247.32 5.53032 243.634 4.97404C230.347 2.96834 212.702 0.355724 200.269 7.15357C185.519 15.2185 205.91 22.4029 211.993 25.1911" stroke="black" stroke-width="5" stroke-linecap="round"/>
</svg>
